svgs/solid/garage-car.svg

<svg xmlns="http://www.w3.org/2000/svg" viewBox="0 0 640 512"><!-- Font Awesome Pro 6.0.0-alpha2 by @fontawesome - https://fontawesome.com License - https://fontawesome.com/license (Commercial License) --><path d="M610.5 117L338.375 3.625C332.5 1.5 326.25 0.25 320 0C313.625 0.25 307.375 1.375 301.5 3.625L29.5 117C11.625 124.5 0 141.875 0 161.25V496C0 504.875 7.125 512 16 512H80C88.875 512 96 504.875 96 496V224C96 206.375 110.625 192 128.625 192H511.375C529.375 192 544 206.375 544 224V496C544 504.875 551.125 512 560 512H624C632.875 512 640 504.875 640 496V161.25C640 141.875 628.375 124.5 610.5 117ZM468.605 349.27L446.73 283.637C438.043 257.578 413.656 240 386.188 240H253.816C226.344 240 201.957 257.578 193.27 283.641L171.395 349.27C155.402 355.387 144 370.766 144 388.91V485.816C144 500.277 155.723 512 170.184 512H183.273C197.73 512 209.453 500.277 209.453 485.816V464H430.547V485.816C430.547 500.277 442.27 512 456.727 512H469.816C484.277 512 496 500.277 496 485.816V388.91C496 370.766 484.598 355.387 468.605 349.27ZM238.805 298.82C240.965 292.348 246.996 288 253.816 288H386.188C393.008 288 399.039 292.348 401.191 298.812L418.918 352H221.078L238.805 298.82ZM216 432C202.746 432 192 421.254 192 408C192 394.742 202.746 384 216 384S240 394.742 240 408C240 421.254 229.254 432 216 432ZM424 432C410.746 432 400 421.254 400 408C400 394.742 410.746 384 424 384S448 394.742 448 408C448 421.254 437.254 432 424 432Z"/></svg>

<svg xmlns="http://www.w3.org/2000/svg" viewBox="0 0 640 512"><!--! Font Awesome Pro 6.0.0-alpha3 by @fontawesome - https://fontawesome.com License - https://fontawesome.com/license (Commercial License) --><path d="M610.5 117l-272-113.3C332.6 1.542 326.3 .25 320 0c-6.375 .25-12.67 1.417-18.54 3.667L29.5 117c-17.88 7.5-29.5 24.88-29.5 44.25L.0001 496c0 8.875 7.125 16 16 16h64c8.875 0 15.1-7.125 15.1-16V224c0-17.62 14.63-32 32.63-32h382.8c18 0 32.62 14.38 32.62 32v272c0 8.875 7.125 16 16 16h63.1c8.875 0 16-7.125 16-16l.0001-334.8C640 141.9 628.4 124.5 610.5 117zM468.6 349.3L446.7 283.6C438 257.6 413.7 240 386.2 240H253.8c-27.47 0-51.86 17.58-60.55 43.64l-21.88 65.63c-15.99 6.117-27.39 21.5-27.39 39.64v96.91C144 500.3 155.7 512 170.2 512h13.09c14.46 0 26.18-11.72 26.18-26.18V464h221.1v21.82C430.5 500.3 442.3 512 456.7 512h13.09c14.46 0 26.18-11.72 26.18-26.18v-96.91C496 370.8 484.6 355.4 468.6 349.3zM238.8 298.8C240.1 292.3 246.1 288 253.8 288h132.4c6.82 0 12.85 4.348 15 10.81L418.9 352H221.1L238.8 298.8zM216 432c-13.25 0-24-10.75-24-24c0-13.26 10.75-24 24-24s24 10.74 24 24C240 421.3 229.3 432 216 432zM424 432c-13.25 0-24-10.75-24-24c0-13.26 10.75-24 24-24s24 10.74 24 24C448 421.3 437.3 432 424 432z"/></svg>
